svgs/dropsync.svg

<svg xmlns="http://www.w3.org/2000/svg" viewBox="0 0 192 192"><path d="M65.599 163.137c-13.64-6.924-30.38-15.28-37.199-18.57l-12.398-5.981L16 100.325c-.001-21.044.382-38.261.851-38.261s10.369 4.826 22 10.725a10870.283 10870.283 0 0 0 36.748 18.543l15.6 7.819v38.321c0 21.077-.18 38.306-.4 38.288-.22-.019-11.56-5.699-25.2-12.623Zm35.2-25.594V99.087l6.8-3.271c6.763-3.253 46.289-23.441 60.801-31.053l7.6-3.987-.002 38.905-.001 38.905-12.399 5.969c-6.819 3.283-19.598 9.637-28.398 14.121-8.8 4.485-20.141 10.217-25.201 12.739l-9.2 4.585Zm-32-58.926c-13.64-7.024-29.805-15.223-35.922-18.22-6.117-2.998-11.362-5.661-11.655-5.918-.294-.258 5.791-3.647 13.522-7.533a19757.49 19757.49 0 0 0 37.655-19.005L95.999 16l23.6 11.941c12.981 6.568 29.926 15.12 37.656 19.005 7.73 3.886 13.85 7.204 13.6 7.373-.25.17-8.015 4.124-17.255 8.788-9.24 4.664-25.606 12.971-36.369 18.461-10.763 5.49-20.483 9.945-21.601 9.901-1.117-.045-13.191-5.828-26.831-12.852Z"/></svg>

<svg
    xmlns="http://www.w3.org/2000/svg"
    viewBox="0 0 192 192"
    id="vector">
    <g id="group">
        <path
            id="path"
            d="M 65.599 163.137 C 51.959 156.213 35.219 147.857 28.4 144.567 L 16.002 138.586 L 16 100.325 C 15.999 79.281 16.382 62.064 16.851 62.064 C 17.32 62.064 27.22 66.89 38.851 72.789 C 50.483 78.687 67.019 87.032 75.599 91.332 L 91.199 99.151 L 91.199 137.472 C 91.199 158.549 91.019 175.778 90.799 175.76 C 90.579 175.741 79.239 170.061 65.599 163.137 Z M 100.799 137.543 L 100.799 99.087 L 107.599 95.816 C 114.362 92.563 153.888 72.375 168.4 64.763 L 176 60.776 L 175.998 99.681 L 175.997 138.586 L 163.598 144.555 C 156.779 147.838 144 154.192 135.2 158.676 C 126.4 163.161 115.059 168.893 109.999 171.415 L 100.799 176 Z M 68.799 78.617 C 55.159 71.593 38.994 63.394 32.877 60.397 C 26.76 57.399 21.515 54.736 21.222 54.479 C 20.928 54.221 27.013 50.832 34.744 46.946 C 42.474 43.061 59.419 34.509 72.399 27.941 L 95.999 16 L 119.599 27.941 C 132.58 34.509 149.525 43.061 157.255 46.946 C 164.985 50.832 171.105 54.15 170.855 54.319 C 170.605 54.489 162.84 58.443 153.6 63.107 C 144.36 67.771 127.994 76.078 117.231 81.568 C 106.468 87.058 96.748 91.513 95.63 91.469 C 94.513 91.424 82.439 85.641 68.799 78.617 Z"
            fill="#000000"
            stroke-width="12"/>
    </g>
</svg>
